app/dist/common/images/oncocyte-oration.svg

<svg height="18" viewBox="0 0 18 18" width="18" xmlns="http://www.w3.org/2000/svg"><path d="m0 0h18v18h-18z" fill="#f0f3fa"/><path d="m10 4.82c0-.45.37-.82.82-.82h2.18v2.18c0 .45-.37.82-.82.82h-2.18zm-6 6c0-.45.37-.82.82-.82h2.18v2.18c0 .45-.37.82-.82.82h-2.18zm6-3a.82.82 0 0 0 -.82-.82h-2.18v2.18c0 .45.37.82.82.82h2.18zm3 3a.82.82 0 0 0 -.82-.82h-2.18v2.18c0 .45.37.82.82.82h2.18z" fill="#a6aaad"/></svg>

<!-- by TradingView --><svg width="18" height="18" viewBox="0 0 18 18" xmlns="http://www.w3.org/2000/svg"><path fill="#F0F3FA" d="M0 0h18v18H0z"/><path d="M10 4.82c0-.45.37-.82.82-.82H13v2.18c0 .45-.37.82-.82.82H10V4.82ZM4 10.82c0-.45.37-.82.82-.82H7v2.18c0 .45-.37.82-.82.82H4v-2.18ZM10 7.82A.82.82 0 0 0 9.18 7H7v2.18c0 .45.37.82.82.82H10V7.82ZM13 10.82a.82.82 0 0 0-.82-.82H10v2.18c0 .45.37.82.82.82H13v-2.18Z" fill="#A6AAAD"/></svg>
